X:1
T:Erin the Green
M:2/4
L:1/8
K:D
 D2D-E| G4| F2 F/2- A3/2| F4| F3 E| D4| D2D-F| F- A3| B- c2 z| d3- B|\
 A3- F| D2-E-F| D- E3| D3 D| D4| D2-E-F| G4| F2 F/2- A3/2| E- F3| F3 E|\
 D4| D2D-F| F- A3| B- c2 z| d3- B| A4| F3 D| D- E3| D3 D| D4| z3| F|\
 F- A3|A-B d2| d3- B| A3 F| F- A3|A-B-B d| d4| z2 A2| A- d3| A- B2 B|\
 A4| F2- E3/2 D/2| E4|B,-D-D D| D4| D2E-F| G4| F2 F/2- A3/2| E- F3|\
 F3 E| D4| D3 F| F- A3|A-B-B c-| d2-e/2-d/2 B| A4|G-F-E D| D- E3|B,-D D3/2 D/2|\
 D4|
